X: 37094
T: Silver Vale, The
R: jig
M: 6/8
K: Dmajor
dFF AGF|dFF AGF|A,CE GFE|A,CE GFE|
DFA GBd|Adc d2 e|fed cBA|GFE D2:|
f^ef a^ga|fdc def|e^de gfg|e2 d cde|
fef gfg|a^ga ba=g|fed cBA|GFE D2:|

